X: 1
T: Rock the Cradle Joe
R: reel
Z: 2020 John Chambers <jc:trillian.mit.edu>
S: https://www.facebook.com/groups/Fiddletuneoftheday/
S: Jane Rothfield, In the Moment
N: Endings adjusted to make repeats work right.
M: C
L: 1/8
K: D
ef | a2a2 fefg | abae fefg | abae fed2 | ef2e f2fg |
   | fAeA dAge | fAeA d2ef | gagf edc2 |1 cd2c d2 :|2 cd2c dcdB ||
|: Acec Acec | fAeA dAdf | fg2f gage | f3e fedB |
 | Acec Acec | fAeA dAdf | gagf edc2 |1 ce2c d2fd :|2 c[f2d2]g [f2d2] |]
_
